X: 21693
T: Kiltimagh, The
R: jig
M: 6/8
K: Gmajor
d|gBd edB|ded dBA|~G3 edB|~A3 ABd|
gBd edB|ded def|g2e dBG|AGF G2:|

